icons/girl_1015y_fill.svg

<svg width="48" height="48" viewBox="0 0 48 48" fill="none" xmlns="http://www.w3.org/2000/svg">
<path fill-rule="evenodd" clip-rule="evenodd" d="M19.5 17C18.6716 17 18 17.6716 18 18.5C18 18.6753 18.0301 18.8436 18.0854 19H18V19.0336C15.75 19.3376 14 21.669 14 24.5C14 26.9939 15.358 29.1 17.2195 29.7741C16.6907 30.9723 16.1204 32.1148 15.6904 32.9435C15.3659 33.5687 15.7555 34.3385 16.4543 34.427C22.3907 35.1792 26.1457 35.1987 31.6089 34.4387C32.2898 34.344 32.6697 33.6013 32.3628 32.9861C31.9433 32.1452 31.3749 30.9704 30.8413 29.7516C32.6715 29.054 34 26.9666 34 24.5C34 21.669 32.25 19.3376 30 19.0336V19H29.9146C29.9699 18.8436 30 18.6753 30 18.5C30 17.6716 29.3284 17 28.5 17H19.5ZM20.331 23.6795C20.8089 22.6927 20.9929 21.1497 20.9929 19H22.9929C22.9929 21.158 22.8266 23.115 22.1311 24.5512C21.77 25.2968 21.2541 25.93 20.5303 26.3677C19.8106 26.803 18.9598 27 18 27V25C18.6863 25 19.1577 24.8605 19.4953 24.6563C19.8288 24.4546 20.1054 24.1455 20.331 23.6795ZM27.0071 19C27.0071 21.1497 27.1911 22.6927 27.669 23.6795C27.8946 24.1455 28.1712 24.4546 28.5047 24.6563C28.8423 24.8605 29.3137 25 30 25V27C29.0402 27 28.1894 26.803 27.4697 26.3677C26.7459 25.93 26.23 25.2968 25.8689 24.5512C25.1734 23.115 25.0071 21.158 25.0071 19H27.0071Z" fill="black"/>
<path fill-rule="evenodd" clip-rule="evenodd" d="M19 37.0138V40.5001C19 41.2523 19.5571 41.8882 20.3028 41.9871C21.0485 42.086 21.7521 41.6173 21.9482 40.891L22.8885 37.4077C21.646 37.3485 20.373 37.2177 19 37.0138ZM26.1096 37.401L27.0518 40.891C27.2479 41.6173 27.9515 42.086 28.6972 41.9871C29.4429 41.8882 30 41.2523 30 40.5001V37C28.6264 37.2027 27.3529 37.3369 26.1096 37.401Z" fill="black"/>
<path d="M28.5 10.5C28.5 12.9853 26.4853 15 24 15C21.5147 15 19.5 12.9853 19.5 10.5C19.5 8.01472 21.5147 6 24 6C26.4853 6 28.5 8.01472 28.5 10.5Z" fill="black"/>
</svg>

<svg
  xmlns="http://www.w3.org/2000/svg"
  width="24"
  height="24"
  viewBox="0 0 24 24"
  fill="none"
  stroke="currentColor"
  stroke-width="2"
  stroke-linecap="round"
  stroke-linejoin="round"
>
  <path
    fill-rule="evenodd"
    d="M19.5 17a1.5 1.5 0 0 0-1.415 2H18v.034c-2.25.304-4 2.635-4 5.466 0 2.494 1.358 4.6 3.22 5.274a57 57 0 0 1-1.53 3.17c-.324.625.066 1.395.764 1.483 5.937.752 9.692.772 15.155.012.68-.095 1.06-.838.754-1.453-.42-.84-.988-2.016-1.522-3.234C32.671 29.054 34 26.967 34 24.5c0-2.831-1.75-5.162-4-5.466V19h-.085q.084-.236.085-.5a1.5 1.5 0 0 0-1.5-1.5zm.831 6.68c.478-.987.662-2.53.662-4.68h2c0 2.158-.166 4.115-.862 5.551-.361.746-.877 1.379-1.6 1.817-.72.435-1.571.632-2.531.632v-2c.686 0 1.158-.14 1.495-.344.334-.201.61-.51.836-.976M27.007 19c0 2.15.184 3.693.662 4.68.226.465.502.775.836.976.337.204.809.344 1.495.344v2c-.96 0-1.81-.197-2.53-.632-.724-.438-1.24-1.071-1.601-1.817-.696-1.436-.862-3.393-.862-5.551z"
    clip-rule="evenodd"
  />
  <path
    fill-rule="evenodd"
    d="M19 37.014V40.5a1.5 1.5 0 0 0 2.948.391l.94-3.483A39 39 0 0 1 19 37.014m7.11.387.942 3.49a1.5 1.5 0 0 0 2.948-.39V37a41 41 0 0 1-3.89.401"
    clip-rule="evenodd"
  />
  <path d="M28.5 10.5a4.5 4.5 0 1 1-9 0 4.5 4.5 0 0 1 9 0" />
</svg>
